www/assets/icons/remove_done.svg

<svg width="24" height="24" viewBox="0 0 24 24" xmlns="http://www.w3.org/2000/svg" fill='currentColor'><path d="M1.795 11.9952L7.375 17.5852L5.965 18.9952L0.375 13.4052L1.795 11.9952ZM2.245 4.21518L12.905 14.8852L11.625 16.1652L7.445 11.9952L6.035 13.4052L11.625 18.9952L14.315 16.3052L19.205 21.1952L20.615 19.7852L3.655 2.80518L2.245 4.21518ZM17.145 13.4852L23.625 6.99518L22.205 5.58518L15.725 12.0652L17.145 13.4852ZM17.965 6.99518L16.555 5.58518L12.905 9.24518L14.315 10.6552L17.965 6.99518Z"/></svg>

<svg xmlns="http://www.w3.org/2000/svg" width="24" height="24" viewBox="0 0 24 24" fill='currentColor'><path d="m1.795 11.995 5.58 5.59-1.41 1.41-5.59-5.59zm.45-7.78 10.66 10.67-1.28 1.28-4.18-4.17-1.41 1.41 5.59 5.59 2.69-2.69 4.89 4.89 1.41-1.41-16.96-16.98zm14.9 9.27 6.48-6.49-1.42-1.41-6.48 6.48zm.82-6.49-1.41-1.41-3.65 3.66 1.41 1.41z"/></svg>
